!! J.S. Bach "Siciliana" from Sonata No. 1, for solo violin, BWV 1001.
!! From 'Neue Ausgabe Saemtlicher Werke' Serie VI: Kammermusikwerke,
!! Band 1 ('Werke fuer Violine') Baerenreiter Kassel (Basel) 1958; p.7
!! NOTE:  This 'monophonic' work has been recoded here as a four-part work.
!! NOTE:  A considerable degree of latitude has been exercised in the
!!        assignment of parts and voices.
**kern	**kern	**kern	**kern
*M12/8	*M12/8	*M12/8	*M12/8
=1	=1	=1	=1
1.r	2.r	8.B-	4.r
.	.	16d	.
.	.	8f	.
.	.	{16e-	8r
.	.	16d	.
.	.	16c	8r
.	.	16B-}	.
.	.	8dd	8bb-
.	8f	8dd	{8bb-
.	8r	8cc	8aa}
.	8r	8b-	8gg
.	8r	8b-	{8gg
.	8r	8b-	8ff}
.	8e-	8r	8r
=2	=2	=2	=2
1.r	8d	8r	8r
.	8r	8cc	8ff
.	8r	8b-	8gg
.	8c	8r	8r
.	8r	8a	16ee-
.	.	.	16cc
.	8B-	8b-	8dd
.	8f	8r	8r
.	8r	8.b-	16dd
.	.	.	16ff
.	8r	.	16ee-
.	.	16b-	16dd
.	8r	8a	8cc
.	8A	8r	8r
.	8c	8r	8r
=3	=3	=3	=3
1.r	8f	8r	8r
.	8r	16a	16cc
.	.	16g	16b-
.	8r	8a	8cc
.	8e-	8r	8r
.	8f	8a	8cc
.	8d	8bn	8ff
.	8c	8r	8r
.	8r	16g	16ee-
.	.	16f	16dd
.	8B-	8g	8ee-
.	4.r	4.r	{16A
.	.	.	16c
.	.	.	16f
.	.	.	32a
.	.	.	32cc
.	.	.	16ee-
.	.	.	16gg}
=4	=4	=4	=4
1.r	8d	8b-	8ff
.	8r	8r	{16ee-
.	.	.	16dd}
.	8e-	8r	{16cc
.	.	.	16b-}
.	8f	4.r	8dd
.	8e-	.	{32cc
.	.	.	32dd
.	.	.	16ee-}
.	8f	.	8dd
.	8.B-	8d	8b-
.	.	8r	8r
.	16d	.	.
.	8f	8r	8r
.	{16e-	8r	8r
.	16d	.	.
.	16c	8r	8r
.	16B-}	.	.
.	8r	8dd	8bb-
=5	=5	=5	=5
2.r	8.f	8dd	8bb-
.	.	8cc	8aa
.	16b-	.	.
.	8a	8r	8r
.	{16g	8r	8r
.	16f#	.	.
.	16en	8r	8r
.	16d}	.	.
.	8r	8cc	8aa
8.G	8d	8cc	8aa
.	8r	8b-	8gg
16g	.	.	.
8fn	8r	8r	8r
8e-	8r	8r	8r
8r	4r	8dd	8bb-
8r	.	8cc	8aa
=6	=6	=6	=6
1.r	1.r	8d	8r
.	.	8cc	{16ff#
.	.	.	16aa}
.	.	8b-	8gg
.	.	8d	8r
.	.	8b-	{16gg
.	.	.	16bb-}
.	.	8cc	8aa
.	.	8d	8r
.	.	8cc	{16aa
.	.	.	16bb-}
.	.	8dd	{16bb-
.	.	.	16ccc}
.	.	16ee-	{32ccc
.	.	.	32bb-
.	.	16r	32aa
.	.	.	32gg
.	.	4r	32ff
.	.	.	32een
.	.	.	32dd
.	.	.	32cc
.	.	.	32b-
.	.	.	32a
.	.	.	32b-
.	.	.	32cc}
=7	=7	=7	=7
1.r	2.r	2.r	8f#
.	.	.	{16ddd
.	.	.	16aa}
.	.	.	8ccc'
.	.	.	16g
.	.	.	{16bb-
.	.	.	16aa}
.	.	.	{16ff#
.	.	.	16gg}
.	.	.	16dd
.	8.c	8g	8ee-
.	.	8r	8cc
.	16e-	.	.
.	8g	8r	8r
.	{16fn	8r	8r
.	16e-	.	.
.	16d	8r	8r
.	16c}	.	.
.	8r	8cc	8aa-
=8	=8	=8	=8
1.r	8d	8cc	8ff#
.	8r	8b-	{16gg
.	.	.	16dd}
.	8r	8f#	{16ee-
.	.	.	16dd}
.	8r	8g	16r
.	.	.	16cc
.	8c	8g	{16b-
.	.	.	16a}
.	8d	8r	{16g
.	.	.	16f#}
.	2.r	4.r	{32B-
.	.	.	32d
.	.	.	32en
.	.	.	32f#
.	.	.	32g
.	.	.	32a
.	.	.	32b-
.	.	.	32cc
.	.	.	32dd
.	.	.	32cc
.	.	.	32ee-
.	.	.	32dd}
.	.	8c	8r
.	.	8d	{16cc
.	.	.	16b-
.	.	8r	16a
.	.	.	16g}
=9	=9	=9	=9
1.r	2.r	8.G	8.g
.	.	16B-	16r
.	.	8d	8r
.	.	{16c	8r
.	.	16B-	.
.	.	16A	8r
.	.	16G}	.
.	.	8g	8b-
.	8.d	8g	8b-
.	.	8fn	8a
.	16e-	.	.
.	8d	8r	8r
.	{16c	8r	8r
.	16Bn	.	.
.	16A	8r	8r
.	16G}	.	.
.	8r	8f	8bn
=10	=10	=10	=10
1.r	8r	8f	8bn
.	16r	8e-	8cc
.	16c	.	.
.	8d	8r	8r
.	{16f	8r	8r
.	16e-	.	.
.	16d	8r	8r
.	16c}	.	.
.	8r	8ee-	8ccc
.	8.g	8ee-	8ccc
.	.	8dd	8bb-
.	16d	.	.
.	8g	8r	8r
.	{16f	.	.
.	16en	8r	8r
.	16d	.	.
.	16c}	8r	8r
.	8een	8r	8bb-
=11	=11	=11	=11
1.r	8ee	8r	8bb-
.	8ff	16r	8aa
.	.	16f	.
.	8r	8ff	8r
.	8r	{16ee-	8r
.	.	16dd	.
.	8r	16cc	8r
.	.	16b-}	.
.	8r	8dd	8aa-
.	8r	8dd	{8aa-
.	16r	8ee	8gg}
.	16B-	.	.
.	8e-	8r	8r
.	{16d	8r	8r
.	16c	.	.
.	16B-	8r	8r
.	16An}	.	.
.	8a	8cc	8gg
=12	=12	=12	=12
1.r	8d	8cc	8ff
.	16G	8r	16r
.	16r	.	16gg
.	8r	8b-	8dd
.	8c	8b-	8ee-
.	16f	8r	8r
.	16cc	.	.
.	8f	8r	8ff
.	8B-	8f	{16ee-
.	.	.	16dd}
.	8g	8r	{16ee-
.	.	.	16dd}
.	8e-	8r	{16cc
.	.	.	16b-}
.	8f	4.r	{16b-
.	.	.	16a}
.	8r	.	{16cc
.	.	.	16b-}
.	8r	.	{16dd
.	.	.	16cc}
=13	=13	=13	=13
2.r	8c	8g	8ee-
.	8r	8r	16r
.	.	.	16gg
.	8r	8r	8ccc
.	8r	8r	{16bb-
.	.	.	16aa
.	8r	8r	16gg
.	.	.	16ff}
.	8A	8f	8ee-
4.r	8B-	8f	{8ee-
.	8r	8r	16dd}
.	.	.	16ff
.	8r	8r	8bb-
4r	8r	8r	{16aa-
.	.	.	16ff
.	8r	8r	16dd
.	.	.	16b-}
8B-	8f	8dd	8aa-
=14	=14	=14	=14
1.r	8e-	{16dd	8gg
.	.	16b-}	.
.	8r	16cc	8r
.	.	16a	.
.	8r	16d	8r
.	.	16ff	.
.	4.r	{16cc	4.r
.	.	16a}	.
.	.	{16b-	.
.	.	16g}	.
.	.	16c	.
.	.	16ee-	.
.	4.r	{16b-	4.r
.	.	16g}	.
.	.	{16a	.
.	.	16f}	.
.	.	16B-	.
.	.	16dd	.
.	4.r	{16e-	4.r
.	.	16dd	.
.	.	8gg}	.
.	.	{16ff	.
.	.	16ee-}	.
=15	=15	=15	=15
2.r	8.f	{8dd	2.r
.	.	8cc}	.
.	16a	.	.
.	8cc	8r	.
.	16b-	8r	.
.	16a	.	.
.	16g	8r	.
.	16f	.	.
.	8e-	8cc	.
4.r	8d	8cc	8.ff
.	8r	8r	.
.	.	.	16gg
.	8r	8r	8ff
8G	8d	8bn	8ff
4r	4r	4r	{16ee-
.	.	.	16dd
.	.	.	16cc
.	.	.	16bn}
=16	=16	=16	=16
1.r	8c	8g	8.ee-
.	8r	8r	.
.	.	.	16ff
.	8r	8r	8ee-
.	8A	8f	8ee-
.	8r	8r	{16dd
.	.	.	16cc
.	8r	8r	16b-
.	.	.	16a}
.	8B-	8r	{16g
.	.	.	16f}
.	8G	8r	{16e-
.	.	.	16d}
.	8b-	8gg	8e-
.	8b-	8ff	8d
.	8r	16ee-	8e-
.	.	16cc	.
.	8r	8dd	8f
=17	=17	=17	=17
2.r	4.r	16cc	8.g
.	.	16b-	.
.	.	8ee-	.
.	.	.	16e-
.	.	8dd	8f
.	4r	4r	8e-
.	.	.	{16gg
.	.	.	16ee-}
.	8d	8b-	8ff
8c	8g	8b-	8.een
4r	4r	4r	.
.	.	.	16ff
.	.	.	8ee
8B-	8g	8cc	16ee
.	.	.	{16gg
4r	4r	4r	16ff
.	.	.	16ee
.	.	.	16dd
.	.	.	16cc}
=18	=18	=18	=18
8A	8f	8cc	8.ff
4r	4r	4r	.
.	.	.	16dd
.	.	.	8ee-
2.r	4.r	4.r	16f
.	.	.	{16ccc
.	.	.	16bb-
.	.	.	16aa
.	.	.	16gg
.	.	.	16ff}
.	8r	8r	{16ee
.	.	.	16dd}
.	8e-	8a	8gg
.	8d	8b-	8ff
4.r	{32d	8r	8r
.	32e-	.	.
.	16f}	.	.
.	{16dd	8r	8r
.	16b-}	.	.
.	8e-	8r	8cc
=19	=19	=19	=19
1.r	8.B-	8d	8b-
.	.	8r	8r
.	16d	.	.
.	8f	8r	8r
.	{16e-	8r	8r
.	16d	.	.
.	16c	8r	8r
.	16B-}	.	.
.	8dd	8r	8bb-
.	8dd	8.f	8bb-
.	8cc	.	8aa
.	.	16a	.
.	8r	8cc	8r
.	4.r	{16b-	4r
.	.	16a	.
.	.	16g	.
.	.	16f}	.
.	.	8ee-	8aa
=20	=20	=20	=20
8B-	8f	8ee-	8aa
4r	4r	8dd	8bb-
.	.	8r	8r
4.r	4.r	4.r	4.r
2.r	2.r	2.r	2.r
==	==	==	==
*-	*-	*-	*-
